flags/language/la.svg

<svg width="512" height="512" viewBox="0 0 512 512" fill="none" xmlns="http://www.w3.org/2000/svg">
<rect width="512" height="512" fill="var(--flag-palette-bright-red, #d80027)"/>
<path d="M192 112C189.204 111.956 186.446 112.646 184 114C167 123 151 134 139 148C131 126 115 122 115 122C115 122 101 135 108 157C110 166 114 172 118 176C110 190 104 205 100 221C83 206 67 211 67 211C67 211 61 228 78 245C84 251 91 254 96 256C96 273 99 289 103 304C81 299 70 311 70 311C70 311 74 329 96 335C105 338 112 337 117 336C126 350 136 363 148 374C126 380 122 397 122 397C122 397 135 411 157 404C166 402 172 398 176 394C200.29 408.142 227.894 415.592 256 415.592C284.106 415.592 311.71 408.142 336 394C340 398 346 402 355 404C377 411 390 397 390 397C390 397 386 380 364 374C376 363 386 350 395 336C400 337 407 338 416 335C438 329 442 311 442 311C442 311 431 299 409 304C413 289 416 273 416 256C421 254 428 251 434 245C451 228 445 211 445 211C445 211 429 206 412 221C408 205 402 190 394 176C398 172 402 166 404 157C411 135 397 122 397 122C397 122 381 126 373 148C361 134 345 123 328 114C325.554 112.646 322.796 111.956 320 112C317.239 112.246 314.59 113.204 312.311 114.782C310.032 116.36 308.202 118.502 307 121C305.235 124.728 304.978 128.993 306.282 132.906C307.587 136.819 310.351 140.077 314 142C327 149 338 158 348 168C325 169 317 184 317 184C317 184 325 200 349 200C357 200 364 198 368 195C374 205 378 215 380 226C360 215 345 224 345 224C345 224 344 242 364 254C372 258 378 260 384 260C384 271 382 283 379 293L378 292C367 272 348 273 348 273C348 273 339 288 351 309C355 316 360 321 365 323C359 332 353 341 345 348C344 325 328 317 328 317C328 317 312 325 312 349C312 357 315 364 317 368C298.328 378.331 277.339 383.75 256 383.75C234.661 383.75 213.672 378.331 195 368C198 364 200 357 200 349C200 325 184 317 184 317C184 317 168 325 167 348C160 341 153 332 147 323C152 321 157 316 161 309C173 288 164 273 164 273C164 273 145 272 134 292V293C130 283 128 271 128 260C134 260 140 258 148 254C168 242 167 224 167 224C167 224 152 215 132 226C134 215 138 205 144 195C148 198 155 200 163 200C187 200 195 184 195 184C195 184 187 169 164 168C174 158 185 149 198 142C201.649 140.077 204.413 136.819 205.718 132.906C207.022 128.993 206.765 124.728 205 121C203.798 118.502 201.968 116.36 199.689 114.782C197.411 113.204 194.761 112.246 192 112Z" fill="var(--flag-palette-yellow, #ffda44)"/>
</svg>

<svg xmlns="http://www.w3.org/2000/svg" width="512" height="512" fill="none"><path fill="var(--flag-palette-bright-red, #d80027)" d="M0 0h512v512H0z"/><path fill="var(--flag-palette-yellow, #ffda44)" d="M192 112a16 16 0 0 0-8 2c-17 9-33 20-45 34-8-22-24-26-24-26s-14 13-7 35c2 9 6 15 10 19q-12 21-18 45c-17-15-33-10-33-10s-6 17 11 34c6 6 13 9 18 11 0 17 3 33 7 48-22-5-33 7-33 7s4 18 26 24c9 3 16 2 21 1 9 14 19 27 31 38-22 6-26 23-26 23s13 14 35 7c9-2 15-6 19-10a159 159 0 0 0 160 0c4 4 10 8 19 10 22 7 35-7 35-7s-4-17-26-23c12-11 22-24 31-38 5 1 12 2 21-1 22-6 26-24 26-24s-11-12-33-7c4-15 7-31 7-48 5-2 12-5 18-11 17-17 11-34 11-34s-16-5-33 10q-6-24-18-45c4-4 8-10 10-19 7-22-7-35-7-35s-16 4-24 26c-12-14-28-25-45-34a16 16 0 0 0-8-2 16 16 0 0 0-13.7 21q2 5.9 7.7 9c13 7 24 16 34 26-23 1-31 16-31 16s8 16 32 16c8 0 15-2 19-5 6 10 10 20 12 31-20-11-35-2-35-2s-1 18 19 30c8 4 14 6 20 6 0 11-2 23-5 33l-1-1c-11-20-30-19-30-19s-9 15 3 36c4 7 9 12 14 14-6 9-12 18-20 25-1-23-17-31-17-31s-16 8-16 32c0 8 3 15 5 19a126 126 0 0 1-122 0c3-4 5-11 5-19 0-24-16-32-16-32s-16 8-17 31c-7-7-14-16-20-25 5-2 10-7 14-14 12-21 3-36 3-36s-19-1-30 19v1c-4-10-6-22-6-33 6 0 12-2 20-6 20-12 19-30 19-30s-15-9-35 2c2-11 6-21 12-31 4 3 11 5 19 5 24 0 32-16 32-16s-8-15-31-16c10-10 21-19 34-26a16 16 0 0 0 1.7-27.2 16 16 0 0 0-7.7-2.8"/></svg>
